packages/foundations/assets/icons/functional/images/maps/location_pin_20.svg

<svg width="20" height="20" viewBox="0 0 20 20" fill="none" xmlns="http://www.w3.org/2000/svg">
<g clip-path="url(#clip0_186_61)">
<path fill-rule="evenodd" clip-rule="evenodd" d="M5 17C5 16.4688 5.5 16 6 16H14C14.5625 16 15 16.4375 15 17C15 17.5625 14.5 18 14 18H6C5.5 18 5 17.5625 5 17ZM10 2C12.7812 2 15 4.0312 15 6.6562C15 7.5938 14.6875 8.5625 14.0938 9.4688L10.8438 14.5312C10.6562 14.8125 10.3125 15 10 15C9.6875 15 9.3438 14.8125 9.1562 14.5312L5.9062 9.4688C5.3125 8.5625 5 7.5938 5 6.6562C5 4.0312 7.2188 2 10 2ZM10 4C8.2812 4 7 5.1562 7 6.625C7 7.125 7.2188 7.7188 7.5938 8.3125L10 12L12.4062 8.3125C12.7812 7.7188 13 7.2188 13 6.625C13 5.1562 11.7188 4 10 4ZM9 7C9 6.4375 9.4062 6 10 6C10.5625 6 11 6.4062 11 7C11 7.5625 10.5938 8 10 8C9.4375 8 9 7.5938 9 7Z" fill="#1A1C1F"/>
</g>
<defs>
<clipPath id="clip0_186_61">
<rect width="20" height="20" fill="white"/>
</clipPath>
</defs>
</svg>

<svg xmlns="http://www.w3.org/2000/svg" width="20" height="20" fill="none"><g clip-path="url(#a)"><path fill="#1A1C1F" fill-rule="evenodd" d="M5 17c0-.531.5-1 1-1h8c.563 0 1 .438 1 1s-.5 1-1 1H6c-.5 0-1-.437-1-1m5-15c2.781 0 5 2.031 5 4.656 0 .938-.312 1.907-.906 2.813l-3.25 5.062A1.07 1.07 0 0 1 10 15a1.07 1.07 0 0 1-.844-.469L5.906 9.47C5.313 8.563 5 7.594 5 6.656 5 4.031 7.219 2 10 2m0 2C8.281 4 7 5.156 7 6.625c0 .5.219 1.094.594 1.688L10 12l2.406-3.687c.375-.594.594-1.094.594-1.688C13 5.156 11.719 4 10 4M9 7c0-.562.406-1 1-1 .563 0 1 .406 1 1 0 .563-.406 1-1 1-.562 0-1-.406-1-1" clip-rule="evenodd"/></g><defs><clipPath id="a"><path fill="#fff" d="M0 0h20v20H0z"/></clipPath></defs></svg>
